symbols/web/add_to_home_screen/materialsymbolsrounded/add_to_home_screen_wght500fill1_20px.svg

<svg xmlns="http://www.w3.org/2000/svg" height="20" width="20"><path d="M3.125 13.417q-.25-.25-.25-.615 0-.364.25-.614l3.854-3.855H4.958q-.354 0-.614-.26-.261-.261-.261-.615t.261-.614q.26-.261.614-.261h4q.396 0 .688.292.292.292.292.708v3.979q0 .355-.261.615-.26.261-.615.261-.354 0-.614-.261-.26-.26-.26-.615V9.583l-3.855 3.855q-.25.25-.604.239-.354-.01-.604-.26Zm3.708 5.895q-.833 0-1.406-.572-.573-.573-.573-1.407v-3.208h1.979v.583h8V5.292h-8v.583H4.854V2.667q0-.834.573-1.407Q6 .688 6.833.688h8q.834 0 1.407.572.572.573.572 1.407v14.666q0 .834-.572 1.407-.573.572-1.407.572Z"/></svg>

<svg xmlns="http://www.w3.org/2000/svg" height="20" width="20"><path d="M3.125 13.417Q2.875 13.167 2.875 12.802Q2.875 12.438 3.125 12.188L6.979 8.333H4.958Q4.604 8.333 4.344 8.073Q4.083 7.812 4.083 7.458Q4.083 7.104 4.344 6.844Q4.604 6.583 4.958 6.583H8.958Q9.354 6.583 9.646 6.875Q9.938 7.167 9.938 7.583V11.562Q9.938 11.917 9.677 12.177Q9.417 12.438 9.062 12.438Q8.708 12.438 8.448 12.177Q8.188 11.917 8.188 11.562V9.583L4.333 13.438Q4.083 13.688 3.729 13.677Q3.375 13.667 3.125 13.417ZM6.833 19.312Q6 19.312 5.427 18.74Q4.854 18.167 4.854 17.333V14.125H6.833V14.708H14.833V5.292H6.833V5.875H4.854V2.667Q4.854 1.833 5.427 1.26Q6 0.688 6.833 0.688H14.833Q15.667 0.688 16.24 1.26Q16.812 1.833 16.812 2.667V17.333Q16.812 18.167 16.24 18.74Q15.667 19.312 14.833 19.312Z"/></svg>
